!!!COM: Haydn, Franz Joseph 
!!!OPR: Symphony in E-flat Major 
!!!OTL: Presto 
!!!OMV: 2 
!!!SCT: H I:22 
!!!SCA: Thematisch-bibliographisches Werkevererzeichnis (A. van Hoboken) 
!!!YOR: Breitkopf & Härtel Edition 
!!!EED: Frances Bennion 
!!!ENC: Frances Bennion 
!!!CDT: 1732/3/31/-1809/5/31/
!!!OCY: Österreich 
!!!YEC: Copyright (c) 1994, 2000 Center for Computer Assisted Research in the Humanities 
!!!YEM: Rights to all derivative editions reserved. 
!!!YEM: Refer to licensing agreement for further details. 
!!!YEN: United States of America 
**kern	**kern	**kern	**kern	**kern	**kern	**kern	**kern
*k[b-e-]	*k[b-e-]	*k[]	*k[]	*k[b-e-a-]	*k[b-e-a-]	*k[b-e-a-]	*k[b-e-a-]
*B-:	*B-:	*B-:	*B-:	*B-:	*B-:	*B-:	*B-:
*clefF	*clefF	*clefF	*clefF	*clefF	*clefF	*clefC3	*clefF4
*M4/4	*M4/4	*M4/4	*M4/4	*M4/4	*M4/4	*M4/4	*M4/4
*tb32	*tb32	*tb32	*tb32	*tb32	*tb32	*tb32	*tb32
=1	=1	=1	=1	=1	=1	=1	=1
2dd	2b-	2cc	2e	4.e- 4.G	4.e- 4.G	4e-	4E-
.	.	.	.	.	.	4E-	4EE-
.	.	.	.	8g	8g	.	.
2r	2r	2r	2r	8f	8f	2r	2r
.	.	.	.	8e-	8e-	.	.
.	.	.	.	8d	8d	.	.
.	.	.	.	8e-	8e-	.	.
=2	=2	=2	=2	=2	=2	=2	=2
4cc	4f	4dd	4g	4B- 4f	4f 4B-	8B-	8BB-
.	.	.	.	.	.	8B-	8BB-
2ee-	2cc	2dd	2g	4a- 4B-	4a- 4B-	8d	8D
.	.	.	.	.	.	8B-	8BB-
.	.	.	.	2r	2r	8d	8D
.	.	.	.	.	.	8B-	8BB-
8ee-	8cc	4dd	4g	.	.	8d	8D
8cc	8a	.	.	.	.	8B-	8BB-
=3	=3	=3	=3	=3	=3	=3	=3
4dd	4b-	4ee	4cc	4.G 4.e-	4.G 4.e-	4e-	4E-
2.r	2.r	2.r	2.r	.	.	4E-	4EE-
.	.	.	.	8g	8g	.	.
.	.	.	.	8f	8f	2r	2r
.	.	.	.	8e-	8e-	.	.
.	.	.	.	8d	8d	.	.
.	.	.	.	8e-	8e-	.	.
=4	=4	=4	=4	=4	=4	=4	=4
4cc	4a	4dd	4g	4B- 4f	4B- 4f	8B-	8BB-
.	.	.	.	.	.	8B-	8BB-
2ee-	2cc	2dd	2g	4B- 4a-	4B- 4a-	8d	8D
.	.	.	.	.	.	8B-	8BB-
.	.	.	.	2r	2r	8d	8D
.	.	.	.	.	.	8B-	8BB-
8ee-	8cc	4dd	4g	.	.	8d	8D
8cc	8a	.	.	.	.	8B-	8BB-
=5	=5	=5	=5	=5	=5	=5	=5
4dd	4b-	4ee	4cc	4.ee- 4.e-	4.ee- 4.e-	4e-	4E-
2.r	2.r	2.r	2.r	.	.	4E-	4EE-
.	.	.	.	8b-	8b-	.	.
.	.	.	.	8a-	8a-	2r	4r
.	.	.	.	8g	8g	.	.
.	.	.	.	8f	8f	.	4G
.	.	.	.	8e-	8e-	.	.
=6	=6	=6	=6	=6	=6	=6	=6
1r	1r	1r	1r	8b	8b	8e-	8A-
.	.	.	.	8cc	8cc	8e-	8A-
.	.	.	.	2cc	2cc	8e-	8A-
.	.	.	.	.	.	8e-	8A-
.	.	.	.	.	.	8e-	8A-
.	.	.	.	.	.	8e-	8A-
.	.	.	.	8a-	8a-	8c	8A-
.	.	.	.	8f	8f	8c	8A-
=7	=7	=7	=7	=7	=7	=7	=7
4r	4r	4r	4r	8e-	8e-	8B-	8B-
.	.	.	.	8d	8d	8B-	8B-
2cc	2a	2dd	2g	8a-	8a-	8B-	8B-
.	.	.	.	8f	8f	8B-	8B-
.	.	.	.	8e-	8e-	8B-	8BB-
.	.	.	.	8d	8d	8B-	8BB-
4ee-	4cc	4dd	4g	8f	8f	8f	8BB-
.	.	.	.	8A-	8A-	8f	8BB-
=8	=8	=8	=8	=8	=8	=8	=8
2ee-	2cc	2dd	2g	2A-	2A-	2f	8E-
.	.	.	.	.	.	.	8E-
.	.	.	.	.	.	.	8E-
.	.	.	.	.	.	.	8E-
4dd	4b-	4ee	4cc	8G	8G	4e-	4E-
.	.	.	.	8e-	8e-	.	.
4r	4r	4r	4r	8g	8g	4r	4r
.	.	.	.	8b-	8b-	.	.
=9	=9	=9	=9	=9	=9	=9	=9
1r	1r	1r	1r	8dd	8dd	8e-	8G
.	.	.	.	8ee-	8ee-	8e-	8G
.	.	.	.	4.ee-	4.ee-	8e-	8G
.	.	.	.	.	.	8e-	8G
.	.	.	.	.	.	8e-	8G
.	.	.	.	8b-	8b-	8e-	8G
.	.	.	.	8g	8g	8e-	8G
.	.	.	.	8e-	8e-	8e-	8G
=10	=10	=10	=10	=10	=10	=10	=10
1r	1r	1r	1r	8b	8b	8e-	8A-
.	.	.	.	8cc	8cc	8e-	8A-
.	.	.	.	2cc	2cc	8e-	8A-
.	.	.	.	.	.	8e-	8A-
.	.	.	.	.	.	8e-	8A-
.	.	.	.	.	.	8e-	8A-
.	.	.	.	8a-	8a-	8c	8A-
.	.	.	.	8f	8f	8c	8A-
=11	=11	=11	=11	=11	=11	=11	=11
4r	4r	1dd	1g	8e-	8e-	8B-	8B-
.	.	.	.	8d	8d	8B-	8B-
2cc	2a	.	.	8f	8f	8B-	8B-
.	.	.	.	8d	8d	8B-	8B-
.	.	.	.	8B-	8B-	8B-	8D
.	.	.	.	8d	8d	8B-	8D
4ee-	4cc	.	.	8f	8f	8B-	8D
.	.	.	.	8a-	8a-	8B-	8D
=12	=12	=12	=12	=12	=12	=12	=12
4dd	4b-	4ee	4cc	12g	12g	8B-	8E-
.	.	.	.	12f	12f	.	.
.	.	.	.	.	.	8B-	8E-
.	.	.	.	12e-	12e-	.	.
2ff	2dd	2gg	2ee	8.e- 8.G	8.G 8.e-	8B-	8E-
.	.	.	.	.	.	8B-	8E-
.	.	.	.	16G 16e-	16e- 16G	.	.
.	.	.	.	4e- 4G	4e- 4G	4B-	4E-
4ee-	4cc	4ff	4dd	4r	4r	4r	4r
=13	=13	=13	=13	=13	=13	=13	=13
1dd	1b-	1ee	1cc	8b-	8e-	8g	4E-
.	.	.	.	8bb-	8e-	8g	.
.	.	.	.	2bb-	8g	8b-	4EE-
.	.	.	.	.	8e-	8g	.
.	.	.	.	.	8g	8b-	4r
.	.	.	.	.	8e-	8g	.
.	.	.	.	4b-	8g	8b-	4E-
.	.	.	.	.	8e-	8g	.
=14	=14	=14	=14	=14	=14	=14	=14
1cc	1a	1dd	1g	8b-	8d	8f	4B-
.	.	.	.	8bb-	8d	8f	.
.	.	.	.	2bb-	8f	8b-	4BB-
.	.	.	.	.	8d	8f	.
.	.	.	.	.	8f	8b-	4r
.	.	.	.	.	8d	8f	.
.	.	.	.	4b-	8f	8b-	4BB-
.	.	.	.	.	8d	8f	.
=15	=15	=15	=15	=15	=15	=15	=15
1ee	1b-	1dd	1dd	8a	8e-	8e-	4F
.	.	.	.	8ccc	8e-	8c	.
.	.	.	.	2ccc	8a	8e-	4FF
.	.	.	.	.	8e-	8c	.
.	.	.	.	.	8a	8e-	4r
.	.	.	.	.	8e-	8c	.
.	.	.	.	4ee-	8a	8e-	4F
.	.	.	.	.	8e-	8c	.
=16	=16	=16	=16	=16	=16	=16	=16
1ff	1a	1dd	1g	8dd	8b-	8d	4B-
.	.	.	.	8bb-	8d	8B-	.
.	.	.	.	2bb-	8f	8d	4BB-
.	.	.	.	.	8d	8B-	.
.	.	.	.	.	8f	8d	4r
.	.	.	.	.	8d	8B-	.
.	.	.	.	4dd	8f	8d	4BB-
.	.	.	.	.	8d	8B-	.
=17	=17	=17	=17	=17	=17	=17	=17
2.dd	2.b-	2.ee	2.cc	8cc	8g	8e-	4E-
.	.	.	.	8gg	8c	8c	.
.	.	.	.	2gg	8e-	8e-	4EE-
.	.	.	.	.	8c	8c	.
.	.	.	.	.	8e-	8e-	4r
.	.	.	.	.	8c	8c	.
4ff	4dd	4ee	4ee	4b-	8b-	8g	4E
.	.	.	.	.	8g	8e	.
=18	=18	=18	=18	=18	=18	=18	=18
4ee	4cc	4dd	4dd	8a	8a	4f	4F
.	.	.	.	8f	8f	.	.
4r	4r	2.r	2.r	8f	8f	2.r	2.r
.	.	.	.	8f	8f	.	.
4ee	4cc	.	.	8a	8a	.	.
.	.	.	.	8f	8f	.	.
4ff	4dd	.	.	8b-	8g	.	.
.	.	.	.	8f	8f	.	.
=19	=19	=19	=19	=19	=19	=19	=19
4gg	4ee	4dd	4dd	8cc	8a	4f	4F
.	.	.	.	8f	8f	.	.
4r	4r	2.r	2.r	8f	8f	2.r	2.r
.	.	.	.	8f	8f	.	.
4ff	4dd	.	.	8b-	8g	.	.
.	.	.	.	8f	8f	.	.
4gg	4ee	.	.	8cc	8a	.	.
.	.	.	.	8f	8f	.	.
=20	=20	=20	=20	=20	=20	=20	=20
4aa	4ff	4dd	4dd	8dd	8b-	4f	4F
.	.	.	.	8f	8f	.	.
4r	4r	2.r	2.r	8f	8f	2.r	2.r
.	.	.	.	8f	8f	.	.
4gg	4ee	.	.	8cc	8a	.	.
.	.	.	.	8f	8f	.	.
4aa	4ff	.	.	8dd	8b-	.	.
.	.	.	.	8f	8f	.	.
=21	=21	=21	=21	=21	=21	=21	=21
4bb-	4gg	1r	1r	8ee-	8cc	1r	1r
.	.	.	.	8cc	8a	.	.
2.r	2.r	.	.	8ff	8dd	.	.
.	.	.	.	8dd	8b-	.	.
.	.	.	.	8gg	8ee-	.	.
.	.	.	.	8ee-	8cc	.	.
.	.	.	.	8cc	8a	.	.
.	.	.	.	8aa	8ee-	.	.
=22	=22	=22	=22	=22	=22	=22	=22
[1ff	[1a	1dd	1g	8bb-	8dd	8B-	8B-
.	.	.	.	4b-	4d	8B-	8B-
.	.	.	.	.	.	8d	8d
.	.	.	.	4b-	4d	8B-	8B-
.	.	.	.	.	.	8d	8d
.	.	.	.	4b-	4d	8B-	8B-
.	.	.	.	.	.	8d	8d
.	.	.	.	8b-	[8d	8B-	8B-
=23	=23	=23	=23	=23	=23	=23	=23
1ff]	1a]	1g	1G	8bb-	8d]	8G	8G
.	.	.	.	4b-	4d	8g	8G
.	.	.	.	.	.	8b-	8B-
.	.	.	.	4b-	4d	8g	8G
.	.	.	.	.	.	8b-	8B-
.	.	.	.	4b-	4d	8g	8G
.	.	.	.	.	.	8b-	8B-
.	.	.	.	8b-	8d	8g	8G
=24	=24	=24	=24	=24	=24	=24	=24
4ff	4g	4cc	4c	8bb-	4c	8e-	8E-
.	.	.	.	8cc	.	8e-	8E-
4dd	4b-	2.r	2.r	8gg	8gg	8e-	8E-
.	.	.	.	8ee-	8ee-	8e-	8E-
4cc	4a	.	.	8dd	8dd	8f	8F
.	.	.	.	8b-	8b-	8f	8F
4b-	4g	.	.	8f	8f	8f	8F
.	.	.	.	8a	8a	8f	8F
=25	=25	=25	=25	=25	=25	=25	=25
4a	4f	4g	4G	8.b-	8.b-	4B-	4BB-
.	.	.	.	16a	16a	.	.
4r	4r	2.r	2.r	8b-	8b-	4r	4r
.	.	.	.	8dd	8dd	.	.
4cc	4cc	.	.	8f	8f	4f	4BB-
.	.	.	.	8dd	8dd	.	.
4ee	4ee	.	.	8e-	8e-	4a	4F
.	.	.	.	8cc	8cc	.	.
=26	=26	=26	=26	=26	=26	=26	=26
4ff	4ff	4g	4G	8d	8d	4b-	4B-
.	.	.	.	8f	8f	.	.
2.r	2.r	2.r	2.r	8b-	8b-	2.r	2.r
.	.	.	.	8dd	8dd	.	.
.	.	.	.	8ff	8ff	.	.
.	.	.	.	8bb-	8bb-	.	.
.	.	.	.	8ff	8ff	.	.
.	.	.	.	8dd	8dd	.	.
=27	=27	=27	=27	=27	=27	=27	=27
2r	2r	4g	4G	8.b-	8.b-	4d	4BB-
.	.	.	.	16a	16a	.	.
.	.	2.r	2.r	8b-	8b-	4r	4r
.	.	.	.	8dd	8dd	.	.
4cc	4cc	.	.	8f	8f	4f	4BB-
.	.	.	.	8dd	8dd	.	.
4ee	4ee	.	.	8e-	8e-	4a	4F
.	.	.	.	8cc	8cc	.	.
=28	=28	=28	=28	=28	=28	=28	=28
4ff	4ff	4g	4G	8d	8d	4b-	4B-
.	.	.	.	8f	8f	.	.
2.r	2.r	2.r	2.r	8b-	8b-	2.r	2.r
.	.	.	.	8dd	8dd	.	.
.	.	.	.	8ff	8ff	.	.
.	.	.	.	8bb-	8bb-	.	.
.	.	.	.	8ff	8ff	.	.
.	.	.	.	8dd	8dd	.	.
=29	=29	=29	=29	=29	=29	=29	=29
1dd	1b-	1ee	1cc	32e-	8b-	8b-	8E-
.	.	.	.	32b-	.	.	.
.	.	.	.	8.gg	.	.	.
.	.	.	.	.	8b-	8b-	8E-
.	.	.	.	8gg	8b-	8b-	8E-
.	.	.	.	8gg	8b-	8b-	8E-
.	.	.	.	8gg	8b-	8b-	8E-
.	.	.	.	8gg	8b-	8b-	8E-
.	.	.	.	8gg	8b-	8b-	8E-
.	.	.	.	8gg	8b-	8b-	8E-
=30	=30	=30	=30	=30	=30	=30	=30
1ee	1g	1cc	1c	32f	8cc	8f	8E-
.	.	.	.	32cc	.	.	.
.	.	.	.	8.aa	.	.	.
.	.	.	.	.	8cc	8f	8E-
.	.	.	.	8aa	8cc	8f	8E-
.	.	.	.	8aa	8cc	8f	8E-
.	.	.	.	8aa	8cc	8f	8E-
.	.	.	.	8aa	8cc	8f	8E-
.	.	.	.	8aa	8cc	8f	8E-
.	.	.	.	8aa	8cc	8f	8E-
=31	=31	=31	=31	=31	=31	=31	=31
4ff	4f	4g	4G	4bb- 4d 4b-	4ff 4b- 4d	4B-	4D
4cc	4a	2.r	2.r	2.r	2.r	2.r	2.r
4b-	4g	.	.	.	.	.	.
4a	4f	.	.	.	.	.	.
=32	=32	=32	=32	=32	=32	=32	=32
4g	4g	1r	1r	[1cc	1b-	1g	8E
.	.	.	.	.	.	.	8E
2.r	2.r	.	.	.	.	.	8E
.	.	.	.	.	.	.	8E
.	.	.	.	.	.	.	8E
.	.	.	.	.	.	.	8E
.	.	.	.	.	.	.	8E
.	.	.	.	.	.	.	8E
=33	=33	=33	=33	=33	=33	=33	=33
1r	1r	1r	1r	4.cc]	4.a	8f	8F
.	.	.	.	.	.	8f	8F
.	.	.	.	.	.	8f	8F
.	.	.	.	8gg	8ee-	8f	8F
.	.	.	.	8ff	8dd	8f	8F
.	.	.	.	8ee-	8cc	8f	8F
.	.	.	.	8dd	8b-	8f	8F
.	.	.	.	8cc	8a	8f	8F
=34	=34	=34	=34	=34	=34	=34	=34
4.ff	4.a	[1g	[1G	4b-	4b-	8B-	8B-
.	.	.	.	.	.	8B-	8B-
.	.	.	.	2.r	2.r	8B-	8B-
8aa	8cc	.	.	.	.	8B-	8B-
8gg	8b-	.	.	.	.	8B-	8B-
8ff	8a	.	.	.	.	8B-	8B-
8ee	8g	.	.	.	.	8B-	8B-
8ff	8a	.	.	.	.	8B-	8B-
=35	=35	=35	=35	=35	=35	=35	=35
4gg	4b-	1g_	1G_	4.cc	4.e-	8B-	8B-
.	.	.	.	.	.	8B-	8B-
2.r	2.r	.	.	.	.	8B-	8B-
.	.	.	.	8ee-	8g	8B-	8B-
.	.	.	.	8dd	8f	8B-	8B-
.	.	.	.	8cc	8e-	8B-	8B-
.	.	.	.	8b-	8d	8B-	8B-
.	.	.	.	8a	8c	8B-	8B-
=36	=36	=36	=36	=36	=36	=36	=36
4.ff	4.a	1g_	1G_	4b-	4d	8B-	8B-
.	.	.	.	.	.	8B-	8B-
.	.	.	.	2.r	2.r	8B-	8B-
8aa	8cc	.	.	.	.	8B-	8B-
8gg	8b-	.	.	.	.	8B-	8B-
8ff	8a	.	.	.	.	8B-	8B-
8ee	8g	.	.	.	.	8B-	8B-
8ff	8a	.	.	.	.	8B-	8B-
=37	=37	=37	=37	=37	=37	=37	=37
4gg	4b-	1g_	1G_	4.cc	4.e-	8B-	8B-
.	.	.	.	.	.	8B-	8B-
2.r	2.r	.	.	.	.	8B-	8B-
.	.	.	.	8ee-	8g	8B-	8B-
.	.	.	.	8dd	8f	8B-	8B-
.	.	.	.	8cc	8e-	8B-	8B-
.	.	.	.	8b-	8d	8B-	8B-
.	.	.	.	8a	8c	8B-	8B-
=38	=38	=38	=38	=38	=38	=38	=38
4ff	4a	4g]	4G]	4b-	4d	4B-	4B-
4ff	4a	4g	4G	4b- 4d 4B-	4B- 4b- 4d	4B-	4BB-
4ff	4a	4g	4G	4B- 4b- 4d	4b- 4d 4B-	4B-	4BB-
4r	4r	4r	4r	4r	4r	4r	4r
=39	=39	=39	=39	=39	=39	=39	=39
[1ff	[1a-	1r	1r	8b-	8d-	8b-	8B-
.	.	.	.	8bb-	8d-	8b-	8B-
.	.	.	.	2bb-	8f	8dd-	8d-
.	.	.	.	.	8d-	8b-	8B-
.	.	.	.	.	8f	8dd-	8d-
.	.	.	.	.	8d-	8b-	8B-
.	.	.	.	4b-	8f	8dd-	8d-
.	.	.	.	.	8d-	8b-	8B-
=40	=40	=40	=40	=40	=40	=40	=40
1ff_	1a-]	1r	1r	8b-	8B-	8g	8G
.	.	.	.	8bb-	8B-	8g	8G
.	.	.	.	2bb-	8d-	8b-	8B-
.	.	.	.	.	8B-	8g	8G
.	.	.	.	.	8d-	8b-	8B-
.	.	.	.	.	8B-	8g	8G
.	.	.	.	4dd-	8d-	8b-	8B-
.	.	.	.	.	8B-	8g	8G
=41	=41	=41	=41	=41	=41	=41	=41
1ff]	[1g	1r	1r	8cc	8G	8e	8E
.	.	.	.	8ccc	8G	8e	8E
.	.	.	.	2ccc	8B-	8g	8G
.	.	.	.	.	8G	8e	8E
.	.	.	.	.	8B-	8g	8G
.	.	.	.	.	8G	8e	8E
.	.	.	.	4B-	8B-	8g	8G
.	.	.	.	.	8G	8e	8E
=42	=42	=42	=42	=42	=42	=42	=42
4ee-	4g]	1r	1r	8A-	8A-	4f	4F
.	.	.	.	8c	8c	.	.
2.r	2.r	.	.	8f	8f	2.r	2.r
.	.	.	.	8a-	8a-	.	.
.	.	.	.	8g	8g	.	.
.	.	.	.	8f	8f	.	.
.	.	.	.	8e	8e	.	.
.	.	.	.	8f	8f	.	.
=43	=43	=43	=43	=43	=43	=43	=43
1ff	[1g	1r	1r	8g	8g	8e	8E
.	.	.	.	8cc	8G	8e	8E
.	.	.	.	2cc	8B-	8g	8G
.	.	.	.	.	8G	8e	8E
.	.	.	.	.	8B-	8g	8G
.	.	.	.	.	8G	8e	8E
.	.	.	.	4b-	8B-	8g	8G
.	.	.	.	.	8G	8e	8E
=44	=44	=44	=44	=44	=44	=44	=44
4ee-	4g]	1r	1r	8a-	4A-	4f	4F
.	.	.	.	8cc	.	.	.
2.r	2.r	.	.	8ff	2.r	4r	4r
.	.	.	.	8aa-	.	.	.
.	.	.	.	8ff	.	4d	4D
.	.	.	.	8dd	.	.	.
.	.	.	.	8b-	.	4r	4r
.	.	.	.	8a-	.	.	.
=45	=45	=45	=45	=45	=45	=45	=45
2dd	2b-	2cc	2e	4.e- 4.G	4.G 4.e-	4e-	4E-
.	.	.	.	.	.	4E-	4EE-
.	.	.	.	8g	8g	.	.
2r	2r	2r	2r	8f	8f	2r	2r
.	.	.	.	8e-	8e-	.	.
.	.	.	.	8d	8d	.	.
.	.	.	.	8e-	8e-	.	.
=46	=46	=46	=46	=46	=46	=46	=46
4cc	4f	4dd	4g	4f 4B-	4f 4B-	8B-	8BB-
.	.	.	.	.	.	8B-	8BB-
2ee-	2cc	2dd	2g	4a- 4B-	4a- 4B-	8d	8D
.	.	.	.	.	.	8B-	8BB-
.	.	.	.	2r	2r	8d	8D
.	.	.	.	.	.	8B-	8BB-
8ee-	8cc	4dd	4g	.	.	8d	8D
8cc	8a	.	.	.	.	8B-	8BB-
=47	=47	=47	=47	=47	=47	=47	=47
1dd	[1b-	[1cc	[1c	4.g	2g	8e-	8E-
.	.	.	.	.	.	8e-	8E-
.	.	.	.	.	.	8e-	8E-
.	.	.	.	8b-	.	8e-	8E-
.	.	.	.	8a-	2e-	8dd-	8d-
.	.	.	.	8g	.	8dd-	8d-
.	.	.	.	8f	.	8dd-	8d-
.	.	.	.	8e-	.	8dd-	8d-
=48	=48	=48	=48	=48	=48	=48	=48
1ee-	1b-_	1cc_	1c_	8a-	2a-	8cc	8c
.	.	.	.	8ee-	.	8cc	8c
.	.	.	.	2ee-	.	8cc	8c
.	.	.	.	.	.	8cc	8c
.	.	.	.	.	2cc	8a-	8A-
.	.	.	.	.	.	8a-	8A-
.	.	.	.	8cc	.	8a-	8A-
.	.	.	.	8ee-	.	8a-	8A-
=49	=49	=49	=49	=49	=49	=49	=49
1ff	1b-_	1cc_	1c_	8ee-	[1e-	8b-	8G
.	.	.	.	8dd-	.	8b-	8G
.	.	.	.	8b-	.	8b-	8G
.	.	.	.	8g	.	8b-	8G
.	.	.	.	4e-	.	8b-	8G
.	.	.	.	.	.	8b-	8G
.	.	.	.	4dd-	.	8b-	8G
.	.	.	.	.	.	8b-	8G
=50	=50	=50	=50	=50	=50	=50	=50
1gg	1b-_	4cc]	4c]	8b	1e-]	8e-	8A-
.	.	.	.	8cc	.	8e-	8A-
.	.	2.r	2.r	2cc	.	8e-	8A-
.	.	.	.	.	.	8e-	8A-
.	.	.	.	.	.	8e-	8A-
.	.	.	.	.	.	8e-	8A-
.	.	.	.	8e-	.	8e-	8A-
.	.	.	.	8ee-	.	8e-	8A-
=51	=51	=51	=51	=51	=51	=51	=51
1ff	1b-_	1r	1r	8ee-	[1e-	8b-	8G
.	.	.	.	8dd-	.	8b-	8G
.	.	.	.	8b-	.	8b-	8G
.	.	.	.	8g	.	8b-	8G
.	.	.	.	4e-	.	8b-	8G
.	.	.	.	.	.	8b-	8G
.	.	.	.	4dd-	.	8b-	8G
.	.	.	.	.	.	8b-	8G
=52	=52	=52	=52	=52	=52	=52	=52
4gg	4b-]	1r	1r	8cc	2e-]	8a-	8A-
.	.	.	.	8aa-	.	8a-	8A-
2.r	2.r	.	.	2aa-	.	8a-	8A-
.	.	.	.	.	.	8a-	8A-
.	.	.	.	.	2a-	8c	8c
.	.	.	.	.	.	8c	8c
.	.	.	.	4gg-	.	8c	8c
.	.	.	.	.	.	8c	8c
=53	=53	=53	=53	=53	=53	=53	=53
1r	1r	1r	1r	8ee	2.a-	8d-	8d-
.	.	.	.	8ff	.	8d-	8d-
.	.	.	.	2ff	.	8d-	8d-
.	.	.	.	.	.	8d-	8d-
.	.	.	.	.	.	8d-	8d-
.	.	.	.	.	.	8d-	8d-
.	.	.	.	4ff	4a	8d-	8d-
.	.	.	.	.	.	8d-	8d-
=54	=54	=54	=54	=54	=54	=54	=54
1r	1r	1r	1r	2.ff	8a	8d-	8d-
.	.	.	.	.	8b-	8d-	8d-
.	.	.	.	.	2b-	8d-	8d-
.	.	.	.	.	.	8d-	8d-
.	.	.	.	.	.	8d-	8d-
.	.	.	.	.	.	8d-	8d-
.	.	.	.	8ee	4b	8d-	8d-
.	.	.	.	8ff	.	8d-	8d-
=55	=55	=55	=55	=55	=55	=55	=55
[1gg	1b	1r	1r	8ee	8cc	8c	8c
.	.	.	.	8ccc	8e	8c	8c
.	.	.	.	2ccc	8g	8e	8c
.	.	.	.	.	8e	8c	8c
.	.	.	.	.	8g	8e	8B-
.	.	.	.	.	8e	8c	8B-
.	.	.	.	4ee	8g	8e	8B-
.	.	.	.	.	8e	8c	8B-
=56	=56	=56	=56	=56	=56	=56	=56
1gg_	1cc	1r	1r	8ff	8cc	8c	8A-
.	.	.	.	8ccc	8f	8c	8A-
.	.	.	.	2ccc	8a-	8f	8A-
.	.	.	.	.	8f	8c	8A-
.	.	.	.	.	8a-	8f	8A-
.	.	.	.	.	8f	8c	8A-
.	.	.	.	4aa-	8a-	8f	8A-
.	.	.	.	.	8f	8c	8A-
=57	=57	=57	=57	=57	=57	=57	=57
1gg]	1cc#	1cc	1c	4ff#	8c	8A-	8A-
.	.	.	.	.	8c	8A-	8A-
.	.	.	.	2ff#	8e-	8A-	8A-
.	.	.	.	.	8c	8A-	8A-
.	.	.	.	.	8e-	8A-	8A-
.	.	.	.	.	8c	8A-	8A-
.	.	.	.	4ff#	8e-	8A-	8A-
.	.	.	.	.	8c	8A-	8A-
=58	=58	=58	=58	=58	=58	=58	=58
4ff#	4dd	4ee	4e	8gg	4.B	4.G	4.G
.	.	.	.	4g	.	.	.
2dd	2dd	2.r	2.r	.	.	.	.
.	.	.	.	4g	8f	8d	8d
.	.	.	.	.	8e-	8c	8c
.	.	.	.	4g	8d	8B	8B
4dd	4dd	.	.	.	8c	8A	8A
.	.	.	.	[8g	8d	8B	8B
=59	=59	=59	=59	=59	=59	=59	=59
[1dd	[1dd	4ee	4e	8g]	4.e-	4.c	4.c
.	.	.	.	4gg	.	.	.
.	.	2.r	2.r	.	.	.	.
.	.	.	.	4gg	8g	8e-	8e-
.	.	.	.	.	8f	8d	8d
.	.	.	.	4gg	8e-	8c	8c
.	.	.	.	.	8d	8B	8B
.	.	.	.	[8gg	8c	8A	8A
=60	=60	=60	=60	=60	=60	=60	=60
1dd_	1dd_	4ee	4e	8gg]	4.B	4.G	4.G
.	.	.	.	4g	.	.	.
.	.	2.r	2.r	.	.	.	.
.	.	.	.	4g	8f	8d	8d
.	.	.	.	.	8e-	8c	8c
.	.	.	.	4g	8d	8B	8B
.	.	.	.	.	8c	8A	8A
.	.	.	.	[8g	8d	8B	8B
=61	=61	=61	=61	=61	=61	=61	=61
1dd_	1dd_	4ee	4e	8g]	4.e-	4.c	4.c
.	.	.	.	4G	.	.	.
.	.	2.r	2.r	.	.	.	.
.	.	.	.	4G	8g	8e-	8e-
.	.	.	.	.	8f	8d	8d
.	.	.	.	4G	8e-	8c	8c
.	.	.	.	.	8d	8B	8B
.	.	.	.	[8G	8c	8A	8A
=62	=62	=62	=62	=62	=62	=62	=62
4dd]	4dd]	4ee	4e	8G]	8B	4G	4G
.	.	.	.	8G	8G	.	.
2.r	2.r	2.r	2.r	8G	8G	4r	4r
.	.	.	.	8G	8G	.	.
.	.	.	.	8B	8B	[2G	4G
.	.	.	.	8G	8G	.	.
.	.	.	.	8c	8c	.	4A
.	.	.	.	8G	8G	.	.
=63	=63	=63	=63	=63	=63	=63	=63
1r	1r	1r	1r	8d	8d	1G]	4B
.	.	.	.	8G	8G	.	.
.	.	.	.	8e-	8e-	.	4c
.	.	.	.	8G	8G	.	.
.	.	.	.	8f	8f	.	4d
.	.	.	.	8G	8G	.	.
.	.	.	.	8d	8d	.	4B
.	.	.	.	8G	8G	.	.
=64	=64	=64	=64	=64	=64	=64	=64
1r	1r	1r	1r	8e-	8e-	[1c	4c
.	.	.	.	8c	8c	.	.
.	.	.	.	8c	8c	.	4r
.	.	.	.	8c	8c	.	.
.	.	.	.	8e	8e	.	4C
.	.	.	.	8c	8c	.	.
.	.	.	.	8f	8f	.	4D
.	.	.	.	8c	8c	.	.
=65	=65	=65	=65	=65	=65	=65	=65
1r	1r	1r	1r	8g	8g	1c]	4E
.	.	.	.	8c	8c	.	.
.	.	.	.	8a-	8a-	.	4F
.	.	.	.	8c	8c	.	.
.	.	.	.	8b-	8b-	.	4G
.	.	.	.	8c	8c	.	.
.	.	.	.	8g	8g	.	4E
.	.	.	.	8c	8c	.	.
=66	=66	=66	=66	=66	=66	=66	=66
1r	1r	1r	1r	8a-	8a-	8c	4F
.	.	.	.	8B-	8B-	8B-	.
.	.	.	.	8B-	8B-	2B-	4r
.	.	.	.	8B-	8B-	.	.
.	.	.	.	8d	8d	.	4BB-
.	.	.	.	8B-	8B-	.	.
.	.	.	.	8e-	8e-	[4B-	4C
.	.	.	.	8B-	8B-	.	.
=67	=67	=67	=67	=67	=67	=67	=67
1r	1r	1r	1r	8f	8f	1B-]	4D
.	.	.	.	8B-	8B-	.	.
.	.	.	.	8g	8g	.	4E-
.	.	.	.	8B-	8B-	.	.
.	.	.	.	8a-	8a-	.	4F
.	.	.	.	8B-	8B-	.	.
.	.	.	.	8f	8f	.	4D
.	.	.	.	8B-	8B-	.	.
=68	=68	=68	=68	=68	=68	=68	=68
2b-	2b-	2cc	2e	4.G 4.e-	4.G 4.e-	4e-	4E-
.	.	.	.	.	.	4E-	4EE-
.	.	.	.	8g	8g	.	.
2r	2r	2r	2r	8f	8f	2r	2r
.	.	.	.	8e-	8e-	.	.
.	.	.	.	8d	8d	.	.
.	.	.	.	8e-	8e-	.	.
=69	=69	=69	=69	=69	=69	=69	=69
4cc	4a	4dd	4g	4f 4B-	4f 4B-	8B-	8BB-
.	.	.	.	.	.	8B-	8BB-
2ee-	2cc	2dd	2g	4a- 4B-	4a- 4B-	8d	8D
.	.	.	.	.	.	8B-	8BB-
.	.	.	.	2r	2r	8d	8D
.	.	.	.	.	.	8B-	8BB-
4ee-	4cc	4dd	4g	.	.	8d	8D
.	.	.	.	.	.	8B-	8BB-
=70	=70	=70	=70	=70	=70	=70	=70
2dd	2b-	2cc	2e	4.g	4.e- 4.G	4e-	4E-
.	.	.	.	.	.	4E-	4EE-
.	.	.	.	8b-	8g	.	.
2r	2r	2r	2r	8a-	8f	2r	2r
.	.	.	.	8g	8e-	.	.
.	.	.	.	8f	8d	.	.
.	.	.	.	8g	8e-	.	.
=71	=71	=71	=71	=71	=71	=71	=71
4ee-	4cc	[1cc	[1c	4a-	4f	8e-	8E-
.	.	.	.	.	.	8e-	8E-
2.gg	2.ee-	.	.	2.cc	2.a-	8e-	8E-
.	.	.	.	.	.	8e-	8E-
.	.	.	.	.	.	8e-	8E-
.	.	.	.	.	.	8e-	8E-
.	.	.	.	.	.	8e-	8E-
.	.	.	.	.	.	8e-	8E-
=72	=72	=72	=72	=72	=72	=72	=72
4ff	4dd	1cc_	1c_	4b-	4g	8e-	8E-
.	.	.	.	.	.	8e-	8E-
2.aa-	2.ff	.	.	2.dd-	2.b-	8e-	8E-
.	.	.	.	.	.	8e-	8E-
.	.	.	.	.	.	8e-	8E-
.	.	.	.	.	.	8e-	8E-
.	.	.	.	.	.	8e-	8E-
.	.	.	.	.	.	8e-	8E-
=73	=73	=73	=73	=73	=73	=73	=73
1gg	1ee-	4cc]	4c]	8cc	8cc	8a-	8A-
.	.	.	.	8aa-	8aa-	8cc	8A-
.	.	2.r	2.r	2aa-	2aa-	8ee-	8c
.	.	.	.	.	.	8cc	8A-
.	.	.	.	.	.	8ee-	8c
.	.	.	.	.	.	8cc	8A-
.	.	.	.	4cc	4cc	8ee-	8c
.	.	.	.	.	.	8cc	8A-
=74	=74	=74	=74	=74	=74	=74	=74
1gg	1ee-	1r	1r	8cc	8cc	8a-	8F
.	.	.	.	8aa-	8aa-	8a-	8F
.	.	.	.	2aa-	2aa-	8cc	8A-
.	.	.	.	.	.	8a-	8F
.	.	.	.	.	.	8cc	8A-
.	.	.	.	.	.	8a-	8F
.	.	.	.	4cc	4cc	8cc	8A-
.	.	.	.	.	.	8a-	8F
=75	=75	=75	=75	=75	=75	=75	=75
1ff	1ee-	1dd	1g	8b-	8b-	8f	8D
.	.	.	.	8aa-	8aa-	8f	8D
.	.	.	.	2aa-	2aa-	8b-	8F
.	.	.	.	.	.	8f	8D
.	.	.	.	.	.	8b-	8F
.	.	.	.	.	.	8f	8D
.	.	.	.	4b-	4b-	8b-	8F
.	.	.	.	.	.	8f	8D
=76	=76	=76	=76	=76	=76	=76	=76
1ff	1dd	2.ee	2.cc	8b-	8b-	8g	8E-
.	.	.	.	8gg	8gg	8g	8E-
.	.	.	.	2gg	2gg	8b-	8G
.	.	.	.	.	.	8g	8E-
.	.	.	.	.	.	8b-	8G
.	.	.	.	.	.	8g	8E-
.	.	4r	4r	4gg	4gg	8b-	8G
.	.	.	.	.	.	8g	8E-
=77	=77	=77	=77	=77	=77	=77	=77
1gg	2.cc	1r	1r	8ff	8ff	8a-	8A-
.	.	.	.	8ccc	8ccc	8a-	8A-
.	.	.	.	2ccc	2ccc	8cc	8c
.	.	.	.	.	.	8a-	8A-
.	.	.	.	.	.	8cc	8c
.	.	.	.	.	.	8a-	8A-
.	4b-	.	.	4ee-	4ee-	8cc	8c
.	.	.	.	.	.	8a	8A
=78	=78	=78	=78	=78	=78	=78	=78
4ff	4a	4g	4G	8dd	8dd	4b-	4B-
.	.	.	.	8b-	8b-	.	.
4r	4r	2.r	2.r	8b-	8b-	2.r	2.r
.	.	.	.	8b-	8b-	.	.
4a	4f	.	.	8dd	8dd	.	.
.	.	.	.	8b-	8b-	.	.
4b-	4g	.	.	8ee-	8cc	.	.
.	.	.	.	8b-	8b-	.	.
=79	=79	=79	=79	=79	=79	=79	=79
4cc	4a	4g	4G	8ff	8dd	4B-	4B-
.	.	.	.	8b-	8b-	.	.
4r	4r	2.r	2.r	8b-	8b-	2.r	2.r
.	.	.	.	8b-	8b-	.	.
4b-	4g	.	.	8ee-	8cc	.	.
.	.	.	.	8b-	8b-	.	.
4cc	4a	.	.	8ff	8dd	.	.
.	.	.	.	8b-	8b-	.	.
=80	=80	=80	=80	=80	=80	=80	=80
4dd	4b-	4g	4G	8gg	8ee-	4B-	4B-
.	.	.	.	8b-	8b-	.	.
4r	4r	2.r	2.r	8b-	8b-	2.r	2.r
.	.	.	.	8b-	8b-	.	.
4cc	4a	.	.	8ff	8dd	.	.
.	.	.	.	8b-	8b-	.	.
4dd	4b-	.	.	8gg	8ee-	.	.
.	.	.	.	8b-	8b-	.	.
=81	=81	=81	=81	=81	=81	=81	=81
4ee-	4cc	4g	4G	8aa-	4ff	4B-	4B-
.	.	.	.	8ff	.	.	.
2.r	2.r	2.r	2.r	8dd	8dd	2.r	2.r
.	.	.	.	8b-	8b-	.	.
.	.	.	.	8a-	8a-	.	.
.	.	.	.	8f	8f	.	.
.	.	.	.	8d	8d	.	.
.	.	.	.	8A-	8A-	.	.
=82	=82	=82	=82	=82	=82	=82	=82
1b-	1d	[1cc	[1c	8G	8G	8e-	8E-
.	.	.	.	4e-	4G	8e-	8E-
.	.	.	.	.	.	8g	8G
.	.	.	.	4e-	4G	8e-	8E-
.	.	.	.	.	.	8g	8G
.	.	.	.	4e-	4G	8e-	8E-
.	.	.	.	.	.	8g	8G
.	.	.	.	[8e-	[8G	8e-	8E-
=83	=83	=83	=83	=83	=83	=83	=83
1dd	1b-	1cc_	1c_	8e-]	8G]	8c	8C
.	.	.	.	4ee-	4g	8c	8c
.	.	.	.	.	.	8e-	8e-
.	.	.	.	4ee-	4g	8c	8c
.	.	.	.	.	.	8e-	8e-
.	.	.	.	4ee-	4g	8c	8c
.	.	.	.	.	.	8e-	8e-
.	.	.	.	[8ee-	8g	8c	8c
=84	=84	=84	=84	=84	=84	=84	=84
4cc	4b-	4cc]	4c]	8ee-]	4f	8A-	8A-
.	.	.	.	8f	.	8A-	8A-
4ee-	4cc	2.r	2.r	8cc	8cc	8A-	8A-
.	.	.	.	8a-	8a-	8A-	8A-
4dd	4b-	.	.	8g	8g	8B-	8B-
.	.	.	.	8e-	8e-	8B-	8B-
4cc	4a	.	.	8B-	8B-	8B-	8B-
.	.	.	.	8d	8d	8B-	8B-
=85	=85	=85	=85	=85	=85	=85	=85
4b-	4b-	4cc	4c	8.e-	8.e-	4e-	4E-
.	.	.	.	16d	16d	.	.
4r	4r	4r	4r	8e-	8e-	4r	4r
.	.	.	.	8g	8g	.	.
4f	4f	4gg	4ee	8B-	8B-	4B-	4E-
.	.	.	.	8g	8g	.	.
4a	4a	4ff	4dd	8A-	8A-	4d	4B-
.	.	.	.	8f	8f	.	.
=86	=86	=86	=86	=86	=86	=86	=86
4b-	4b-	4ee	4cc	8G	8G	4e-	4e-
.	.	.	.	8B-	8B-	.	.
2.r	2.r	2.r	2.r	8e-	8e-	2.r	2.r
.	.	.	.	8g	8g	.	.
.	.	.	.	8b-	8b-	.	.
.	.	.	.	8ee-	8ee-	.	.
.	.	.	.	8b-	8b-	.	.
.	.	.	.	8g	8g	.	.
=87	=87	=87	=87	=87	=87	=87	=87
4b-	4b-	4cc	4e	8.e-	8.e-	4e-	4E-
.	.	.	.	16d	16d	.	.
4r	4r	4r	4r	8e-	8e-	4r	4r
.	.	.	.	8g	8g	.	.
4f	4f	4gg	4ee	8B-	8B-	4B-	4E-
.	.	.	.	8g	8g	.	.
4a	4a	4ff	4dd	8A-	8A-	4d	4B-
.	.	.	.	8f	8f	.	.
=88	=88	=88	=88	=88	=88	=88	=88
4b-	4b-	4ee	4cc	8G	8G	4e-	4e-
.	.	.	.	8B-	8B-	.	.
2.r	2.r	2.r	2.r	8e-	8e-	2.r	2.r
.	.	.	.	8g	8g	.	.
.	.	.	.	8b-	8b-	.	.
.	.	.	.	8ee-	8ee-	.	.
.	.	.	.	8b-	8b-	.	.
.	.	.	.	8g	8g	.	.
=89	=89	=89	=89	=89	=89	=89	=89
1gg	1b-	1cc	1c	32A-	8e-	8e-	8A-
.	.	.	.	32e-	.	.	.
.	.	.	.	8.cc	.	.	.
.	.	.	.	.	8e-	8e-	8A-
.	.	.	.	8cc	8e-	8e-	8A-
.	.	.	.	8cc	8e-	8e-	8A-
.	.	.	.	8cc	8e-	8e-	8A-
.	.	.	.	8cc	8e-	8e-	8A-
.	.	.	.	8cc	8e-	8e-	8A-
.	.	.	.	8cc	8e-	8e-	8A-
=90	=90	=90	=90	=90	=90	=90	=90
1aa	1cc	1dd	1g	32A-	8f	8b-	8A-
.	.	.	.	32f	.	.	.
.	.	.	.	8.dd	.	.	.
.	.	.	.	.	8f	8b-	8A-
.	.	.	.	8dd	8f	8b-	8A-
.	.	.	.	8dd	8f	8b-	8A-
.	.	.	.	8dd	8f	8b-	8A-
.	.	.	.	8dd	8f	8b-	8A-
.	.	.	.	8dd	8f	8b-	8A-
.	.	.	.	8dd	8f	8b-	8A-
=91	=91	=91	=91	=91	=91	=91	=91
4bb-	4dd	4ee	4cc	4ee- 4G 4e-	4b- 4G 4e-	4b-	4G
4ff	4dd	4gg	4ee	2.r	2.r	2.r	2.r
4ee-	4cc	4ff	4dd	.	.	.	.
4dd	4b-	4ee	4cc	.	.	.	.
=92	=92	=92	=92	=92	=92	=92	=92
4cc	4cc	4dd	4dd	[1f	1e-	8c	8A
.	.	.	.	.	.	8c	8A
2.r	2.r	2.r	2.r	.	.	8c	8A
.	.	.	.	.	.	8c	8A
.	.	.	.	.	.	8c	8A
.	.	.	.	.	.	8c	8A
.	.	.	.	.	.	8c	8A
.	.	.	.	.	.	8c	8A
=93	=93	=93	=93	=93	=93	=93	=93
1r	1r	1r	1r	4.f]	4.d	8B-	8B-
.	.	.	.	.	.	8B-	8B-
.	.	.	.	.	.	8B-	8B-
.	.	.	.	8cc	8a-	8B-	8B-
.	.	.	.	8b-	8g	8B-	8B-
.	.	.	.	8a-	8f	8B-	8B-
.	.	.	.	8g	8e-	8B-	8B-
.	.	.	.	8f	8d	8B-	8B-
=94	=94	=94	=94	=94	=94	=94	=94
4.b-	4.d	[1cc	[1c	4e-	4e-	8E-	8E-
.	.	.	.	.	.	8E-	8E-
.	.	.	.	2.r	2.r	8E-	8E-
8dd	8f	.	.	.	.	8E-	8E-
8cc	8e-	.	.	.	.	8E-	8E-
8b-	8d	.	.	.	.	8E-	8E-
8a	8c	.	.	.	.	8E-	8E-
8b-	8d	.	.	.	.	8E-	8E-
=95	=95	=95	=95	=95	=95	=95	=95
4cc	4e-	1cc_	1c_	4.f	4.A-	8E-	8E-
.	.	.	.	.	.	8E-	8E-
2.r	2.r	.	.	.	.	8E-	8E-
.	.	.	.	8a-	8c	8E-	8E-
.	.	.	.	8g	8B-	8E-	8E-
.	.	.	.	8f	8A-	8E-	8E-
.	.	.	.	8e-	8G	8E-	8E-
.	.	.	.	8d	8A-	8E-	8E-
=96	=96	=96	=96	=96	=96	=96	=96
4.b-	4.d	1cc_	1c_	4e-	4G	8E-	8E-
.	.	.	.	.	.	8E-	8E-
.	.	.	.	2.r	2.r	8E-	8E-
8dd	8f	.	.	.	.	8E-	8E-
8cc	8e-	.	.	.	.	8E-	8E-
8b-	8d	.	.	.	.	8E-	8E-
8a	8c	.	.	.	.	8E-	8E-
8b-	8d	.	.	.	.	8E-	8E-
=97	=97	=97	=97	=97	=97	=97	=97
4cc	4e-	1cc_	1c_	4.f	4.A-	8E-	8E-
.	.	.	.	.	.	8E-	8E-
2.r	2.r	.	.	.	.	8E-	8E-
.	.	.	.	8a-	8c	8E-	8E-
.	.	.	.	8g	8B-	8E-	8E-
.	.	.	.	8f	8A-	8E-	8E-
.	.	.	.	8e-	8G	8E-	8E-
.	.	.	.	8d	8A-	8E-	8E-
=98	=98	=98	=98	=98	=98	=98	=98
4b-	4d	4cc]	4c]	4e-	4G	4E-	4E-
4b-	4d	4cc	4e	4G 4e-	4e- 4G	4E-	4E-
4b-	4d	4cc	4e	4e- 4G	4e- 4G	4E-	4E-
4r	4r	4r	4r	4r	4r	4r	4r
==	==	==	==	==	==	==	==
*-	*-	*-	*-	*-	*-	*-	*-
!!!RWG1: This file contains only pitch and duration data.
!!!RWG2: Transposing instruments are not transposed.
!!!RWG3: Spines may have incompatible meters.
!!!RWG4: Durations of rests and tied notes may be interpreted.
!!!RWG: Key is interpreted using the Humdrum key tool.
!!!OPT: The Philosopher 
!!!AFT: stage1 
!!!END: 2000/12/13
!!format changes:
!!content changes:
!!public access: complete
!!!KEY: 2082270060
!!!EMD: Converted from MuseData to Humdrum Dec 16, 2000, by Andreas Kornstaedt using muse2kern.
